X: 14752
T: Gan Ainm
R: slip jig
M: 9/8
K: Adorian
|:A2e edB BAG|ABG AEG DEG|A2e edB BAG|gde cdB BAG|
A2e edB BAG|ABG AEG DEG|ABG AEG DEF|1 G2E DEG cGB:|2 G2E DEG EDB,||
A,2E EDB, EDB,|A,2E EDB, A,2G,|A,2E EDE GAB|ABG AEG EDB,|
A,2E EDB, EDB,|A,2E EDB, A,2G,|A,2E EDE GAB|ABd deg gab||
|:a3 a3 age|g3 g2e deg|a3 aba age|g2e deg c'gb|
aba aba age|g2e deg edB|ABd edg edB|1 ABd edg egb:|2 ABd edg edB||

